src/globals/images/logo.svg

<svg width="133" height="36" viewBox="0 0 133 36" fill="none" xmlns="http://www.w3.org/2000/svg">
<path d="M48.793 24H45.193V12.8H40.993V10H52.993V12.8H48.793V24ZM57.6953 13.6C58.9886 13.3333 60.122 13.2 61.0953 13.2H61.9953C62.902 13.2 63.6286 13.4733 64.1753 14.02C64.722 14.5667 64.9953 15.2933 64.9953 16.2V24H61.4953V16.6C61.4953 16.4 61.4286 16.2333 61.2953 16.1C61.162 15.9667 60.9953 15.9 60.7953 15.9H60.0953C59.5886 15.9 59.122 15.9267 58.6953 15.98C58.282 16.0333 57.9486 16.0733 57.6953 16.1V24H54.1953V10H57.6953V13.6ZM71.193 13.8V24H67.693V16.5H66.193V13.8H71.193ZM67.693 9.8H71.193V12.6H67.693V9.8ZM72.7992 21.2C75.5059 21.4 77.6392 21.5 79.1992 21.5C79.3992 21.5 79.5659 21.4333 79.6992 21.3C79.8326 21.1667 79.8992 21 79.8992 20.8V20.1H75.5992C74.6926 20.1 73.9659 19.8267 73.4192 19.28C72.8726 18.7333 72.5992 18.0067 72.5992 17.1V16.4C72.5992 15.4933 72.8726 14.7667 73.4192 14.22C73.9659 13.6733 74.6926 13.4 75.5992 13.4H82.3992V16H76.7992C76.5992 16 76.4326 16.0667 76.2992 16.2C76.1659 16.3333 76.0992 16.5 76.0992 16.7C76.0992 16.9 76.1659 17.0667 76.2992 17.2C76.4326 17.3333 76.5992 17.4 76.7992 17.4H80.3992C81.3059 17.4 82.0326 17.6733 82.5792 18.22C83.1259 18.7667 83.3992 19.4933 83.3992 20.4V21.2C83.3992 22.1067 83.1259 22.8333 82.5792 23.38C82.0326 23.9267 81.3059 24.2 80.3992 24.2C78.0392 24.2 75.5059 24.0667 72.7992 23.8V21.2ZM95.8008 23.8C92.8274 24.0667 90.3608 24.2 88.4008 24.2C87.0941 24.2 86.1341 23.8933 85.5208 23.28C84.9074 22.6667 84.6008 21.7067 84.6008 20.4V14C84.6008 12.6 84.9141 11.5867 85.5408 10.96C86.1808 10.32 87.2008 10 88.6008 10H95.8008V12.8H89.4008C88.6008 12.8 88.2008 13.2 88.2008 14V20.4C88.2008 20.7067 88.2874 20.9533 88.4608 21.14C88.6474 21.3133 88.8808 21.4 89.1608 21.4C89.4408 21.4 89.7474 21.4 90.0808 21.4C90.4141 21.3867 90.7608 21.3733 91.1208 21.36C91.4808 21.3467 91.8408 21.3333 92.2008 21.32C92.5741 21.3067 93.0474 21.28 93.6208 21.24C94.2074 21.2 94.9341 21.1533 95.8008 21.1V23.8ZM108.003 21C108.003 22 107.716 22.7867 107.143 23.36C106.583 23.92 105.803 24.2 104.803 24.2H100.203C99.2031 24.2 98.4165 23.92 97.8431 23.36C97.2831 22.7867 97.0031 22 97.0031 21V16.4C97.0031 15.4 97.2831 14.62 97.8431 14.06C98.4165 13.4867 99.2031 13.2 100.203 13.2H104.803C105.803 13.2 106.583 13.4867 107.143 14.06C107.716 14.62 108.003 15.4 108.003 16.4V21ZM104.503 16.7C104.503 16.1667 104.236 15.9 103.703 15.9H101.303C100.77 15.9 100.503 16.1667 100.503 16.7V20.7C100.503 21.2333 100.77 21.5 101.303 21.5H103.703C104.236 21.5 104.503 21.2333 104.503 20.7V16.7ZM115.901 16.3C115.061 16.3 114.194 16.5 113.301 16.9V24H109.801V13.4H112.901L113.101 14.7C114.247 13.7 115.447 13.2 116.701 13.2H117.601V16.3H115.901ZM126.109 24L125.909 23C125.283 23.4133 124.636 23.72 123.969 23.92C123.316 24.1067 122.763 24.2 122.309 24.2H121.409C120.503 24.2 119.776 23.9267 119.229 23.38C118.683 22.8333 118.409 22.1067 118.409 21.2V16.6C118.409 15.6 118.689 14.82 119.249 14.26C119.823 13.6867 120.609 13.4 121.609 13.4H125.709V10H129.209V24H126.109ZM123.309 21.3C124.016 21.3 124.816 21.1667 125.709 20.9V16.1H122.709C122.176 16.1 121.909 16.3667 121.909 16.9V20.6C121.909 20.8 121.976 20.9667 122.109 21.1C122.243 21.2333 122.409 21.3 122.609 21.3H123.309Z" fill="#F9F9F9"/>
<path d="M31 1.5H19C18.175 1.5 17.5075 2.175 17.5075 3L17.5 16.5L20.5 13.5H31C31.825 13.5 32.5 12.825 32.5 12V3C32.5 2.175 31.825 1.5 31 1.5ZM22.75 8.25H21.25V6.75H22.75V8.25ZM25.75 8.25H24.25V6.75H25.75V8.25ZM28.75 8.25H27.25V6.75H28.75V8.25Z" fill="#F9F9F9"/>
<path d="M3 1.5H15C15.825 1.5 16.5 2.175 16.5 3V16.5L13.5 13.5H3C2.175 13.5 1.5 12.825 1.5 12V3C1.5 2.175 2.175 1.5 3 1.5ZM9 8.25C9.4125 8.25 9.75 7.9125 9.75 7.5V4.5C9.75 4.0875 9.4125 3.75 9 3.75C8.5875 3.75 8.25 4.0875 8.25 4.5V7.5C8.25 7.9125 8.5875 8.25 9 8.25ZM8.25 11.25H9.75V9.75H8.25V11.25Z" fill="#F9F9F9"/>
<path d="M17 24.75C18.63 24.75 20.07 25.14 21.24 25.65C22.32 26.13 23 27.21 23 28.38V29C23 29.55 22.55 30 22 30H12C11.45 30 11 29.55 11 29V28.39C11 27.21 11.68 26.13 12.76 25.66C13.93 25.14 15.37 24.75 17 24.75ZM9 25C10.1 25 11 24.1 11 23C11 21.9 10.1 21 9 21C7.9 21 7 21.9 7 23C7 24.1 7.9 25 9 25ZM10.13 26.1C9.76 26.04 9.39 26 9 26C8.01 26 7.07 26.21 6.22 26.58C5.48 26.9 5 27.62 5 28.43V29C5 29.55 5.45 30 6 30H9.5V28.39C9.5 27.56 9.73 26.78 10.13 26.1ZM25 25C26.1 25 27 24.1 27 23C27 21.9 26.1 21 25 21C23.9 21 23 21.9 23 23C23 24.1 23.9 25 25 25ZM29 28.43C29 27.62 28.52 26.9 27.78 26.58C26.93 26.21 25.99 26 25 26C24.61 26 24.24 26.04 23.87 26.1C24.27 26.78 24.5 27.56 24.5 28.39V30H28C28.55 30 29 29.55 29 29V28.43ZM17 18C18.66 18 20 19.34 20 21C20 22.66 18.66 24 17 24C15.34 24 14 22.66 14 21C14 19.34 15.34 18 17 18Z" fill="#F9F9F9"/>
</svg>

<svg xmlns="http://www.w3.org/2000/svg" width="133" height="36" fill="#f9f9f9" xmlns:v="https://vecta.io/nano"><path d="M48.793 24h-3.6V12.8h-4.2V10h12v2.8h-4.2V24zm8.902-10.4c1.293-.267 2.427-.4 3.4-.4h.9c.907 0 1.633.273 2.18.82s.82 1.273.82 2.18V24h-3.5v-7.4a.68.68 0 0 0-.7-.7h-.7c-.507 0-.973.027-1.4.08l-1 .12V24h-3.5V10h3.5v3.6zm13.498.2V24h-3.5v-7.5h-1.5v-2.7h5zm-3.5-4h3.5v2.8h-3.5V9.8zm5.106 11.4l6.4.3a.68.68 0 0 0 .7-.7v-.7h-4.3c-.907 0-1.633-.273-2.18-.82s-.82-1.273-.82-2.18v-.7c0-.907.273-1.633.82-2.18s1.273-.82 2.18-.82h6.8V16h-5.6a.68.68 0 0 0-.7.7.68.68 0 0 0 .7.7h3.6c.907 0 1.633.273 2.18.82s.82 1.273.82 2.18v.8c0 .907-.273 1.633-.82 2.18s-1.273.82-2.18.82c-2.36 0-4.893-.133-7.6-.4v-2.6zm23.002 2.6l-7.4.4c-1.307 0-2.267-.307-2.88-.92s-.92-1.573-.92-2.88V14c0-1.4.313-2.413.94-3.04.64-.64 1.66-.96 3.06-.96h7.2v2.8h-6.4c-.8 0-1.2.4-1.2 1.2v6.4c0 .307.087.553.26.74a.99.99 0 0 0 .7.26h.92l1.04-.04 1.08-.04 1.42-.08 2.18-.14v2.7zm12.202-2.8c0 1-.287 1.787-.86 2.36-.56.56-1.34.84-2.34.84h-4.6c-1 0-1.787-.28-2.36-.84-.56-.573-.84-1.36-.84-2.36v-4.6c0-1 .28-1.78.84-2.34.573-.573 1.36-.86 2.36-.86h4.6c1 0 1.78.287 2.34.86.573.56.86 1.34.86 2.34V21zm-3.5-4.3c0-.533-.267-.8-.8-.8h-2.4c-.533 0-.8.267-.8.8v4c0 .533.267.8.8.8h2.4c.533 0 .8-.267.8-.8v-4zm11.398-.4c-.84 0-1.707.2-2.6.6V24h-3.5V13.4h3.1l.2 1.3c1.146-1 2.346-1.5 3.6-1.5h.9v3.1h-1.7zm10.208 7.7l-.2-1c-.626.413-1.273.72-1.94.92-.653.187-1.206.28-1.66.28h-.9c-.906 0-1.633-.273-2.18-.82s-.82-1.273-.82-2.18v-4.6c0-1 .28-1.78.84-2.34.574-.573 1.36-.86 2.36-.86h4.1V10h3.5v14h-3.1zm-2.8-2.7c.707 0 1.507-.133 2.4-.4v-4.8h-3c-.533 0-.8.267-.8.8v3.7a.68.68 0 0 0 .7.7h.7zM31 1.5H19A1.5 1.5 0 0 0 17.508 3L17.5 16.5l3-3H31c.825 0 1.5-.675 1.5-1.5V3c0-.825-.675-1.5-1.5-1.5zm-8.25 6.75h-1.5v-1.5h1.5v1.5zm3 0h-1.5v-1.5h1.5v1.5zm3 0h-1.5v-1.5h1.5v1.5zM3 1.5h12c.825 0 1.5.675 1.5 1.5v13.5l-3-3H3c-.825 0-1.5-.675-1.5-1.5V3c0-.825.675-1.5 1.5-1.5zm6 6.75c.412 0 .75-.338.75-.75v-3c0-.412-.338-.75-.75-.75s-.75.338-.75.75v3c0 .412.338.75.75.75zm-.75 3h1.5v-1.5h-1.5v1.5zM17 24.75a10.61 10.61 0 0 1 4.24.9c1.08.48 1.76 1.56 1.76 2.73V29c0 .55-.45 1-1 1H12c-.55 0-1-.45-1-1v-.61c0-1.18.68-2.26 1.76-2.73a10.44 10.44 0 0 1 4.24-.91zM9 25c1.1 0 2-.9 2-2s-.9-2-2-2-2 .9-2 2 .9 2 2 2zm1.13 1.1c-.37-.06-.74-.1-1.13-.1a6.95 6.95 0 0 0-2.78.58A2.01 2.01 0 0 0 5 28.43V29c0 .55.45 1 1 1h3.5v-1.61a4.5 4.5 0 0 1 .63-2.29zM25 25c1.1 0 2-.9 2-2s-.9-2-2-2-2 .9-2 2 .9 2 2 2zm4 3.43a2.01 2.01 0 0 0-1.22-1.85A6.95 6.95 0 0 0 25 26c-.39 0-.76.04-1.13.1a4.5 4.5 0 0 1 .63 2.29V30H28c.55 0 1-.45 1-1v-.57zM17 18c1.66 0 3 1.34 3 3s-1.34 3-3 3-3-1.34-3-3 1.34-3 3-3z"/></svg>
